assets/img/icons/ui/contact.svg

<?xml version="1.0" encoding="utf-8"?>
<!-- Generated by IcoMoon.io -->
<!DOCTYPE svg PUBLIC "-//W3C//DTD SVG 1.1//EN" "http://www.w3.org/Graphics/SVG/1.1/DTD/svg11.dtd">
<svg version="1.1" xmlns="http://www.w3.org/2000/svg" xmlns:xlink="http://www.w3.org/1999/xlink" width="32" height="32" viewBox="0 0 32 32">
<path fill="rgb(0, 0, 0)" d="M0 4v24h32v-24h-32zM30 6v0.519l-14.051 9.395-13.949-9.333v-0.581h28zM2 26v-17.351l12.039 7.991c0.636 0.452 1.223 0.87 1.91 1.359 0.69-0.491 1.274-0.907 1.91-1.359v0.001l12.141-8.064v17.422h-28z"></path>
</svg>

<svg xmlns="http://www.w3.org/2000/svg" width="32" height="32" viewBox="0 0 32 32"><path d="M0 4v24h32V4H0zm30 2v.519l-14.051 9.395L2 6.581V6h28zM2 26V8.649l12.039 7.991 1.91 1.359 1.91-1.359v.001L30 8.577v17.422H2z"/></svg>
